static/img/logo/ThumbsDown.svg

<svg width="20" height="20" viewBox="0 0 20 20" fill="none" xmlns="http://www.w3.org/2000/svg">
<path d="M8.60948 12.0897V14.8865C8.60948 16.045 9.54859 16.9841 10.7071 16.9841L13.5039 10.6913V3.00009H5.37916C4.68186 2.99221 4.0853 3.49927 3.98075 4.18874L3.01585 10.4816C2.95428 10.8872 3.07395 11.2994 3.34317 11.609C3.61239 11.9186 4.00399 12.0944 4.41425 12.0897H8.60948Z" strokeOpacity="0.8" stroke-linejoin="round"/>
<path d="M13.5039 3.00026H15.3708C16.1899 2.98577 16.8901 3.58682 16.9999 4.39866V9.2931C16.8901 10.1049 16.1899 10.7837 15.3708 10.7692H13.5039V3.00026Z" strokeOpacity="0.8" stroke-linejoin="round"/>
</svg>

<svg xmlns="http://www.w3.org/2000/svg" width="20" height="20" fill="none" viewBox="0 0 20 20"><path d="M8.61 12.09v2.797c0 1.158.939 2.097 2.097 2.097l2.797-6.293v-7.69H5.379a1.4 1.4 0 0 0-1.398 1.188l-.965 6.293a1.398 1.398 0 0 0 1.398 1.608zM13.504 3h1.867c.819-.014 1.52.587 1.629 1.399v4.894c-.11.812-.81 1.49-1.63 1.476h-1.866z"/></svg>
